fs/view_desktop_20_filled.svg

<svg viewBox="0 0 20 20" fill="none" xmlns="http://www.w3.org/2000/svg" height="1em" width="1em">
  <path d="M1.96191 4.5C1.96191 3.67157 2.63349 3 3.46191 3H16.4011C17.2296 3 17.9011 3.67157 17.9011 4.5V12.5C17.9011 13.3284 17.2296 14 16.4011 14H11.9999V16.0146H13.4987C13.7748 16.0146 13.9987 16.2385 13.9987 16.5146C13.9987 16.7908 13.7748 17.0146 13.4987 17.0146H6.49866C6.22251 17.0146 5.99866 16.7908 5.99866 16.5146C5.99866 16.2385 6.22251 16.0146 6.49866 16.0146H7.99988V14H3.46191C2.63349 14 1.96191 13.3284 1.96191 12.5V4.5ZM8.99988 14V16.0146H10.9999V14H8.99988ZM3.99988 5.5V11.5C3.99988 11.7761 4.22374 12 4.49988 12H5.49763C5.77377 12 5.99763 11.7761 5.99763 11.5V5.5C5.99763 5.22386 5.77377 5 5.49763 5H4.49988C4.22374 5 3.99988 5.22386 3.99988 5.5ZM6.99988 5.5V11.5C6.99988 11.7761 7.22374 12 7.49988 12H15.4999C15.776 12 15.9999 11.7761 15.9999 11.5V5.5C15.9999 5.22386 15.776 5 15.4999 5H7.49988C7.22374 5 6.99988 5.22386 6.99988 5.5Z" fill="#212121"/>
</svg>

<svg viewBox="0 0 20 20" fill="none" xmlns="http://www.w3.org/2000/svg" height="1em" width="1em">
  <path d="M1.962 4.5a1.5 1.5 0 0 1 1.5-1.5h12.94a1.5 1.5 0 0 1 1.5 1.5v8a1.5 1.5 0 0 1-1.5 1.5H12v2.015h1.499a.5.5 0 0 1 0 1h-7a.5.5 0 1 1 0-1h1.5V14H3.463a1.5 1.5 0 0 1-1.5-1.5v-8ZM9 14v2.015h2V14H9ZM4 5.5v6a.5.5 0 0 0 .5.5h.998a.5.5 0 0 0 .5-.5v-6a.5.5 0 0 0-.5-.5H4.5a.5.5 0 0 0-.5.5Zm3 0v6a.5.5 0 0 0 .5.5h8a.5.5 0 0 0 .5-.5v-6a.5.5 0 0 0-.5-.5h-8a.5.5 0 0 0-.5.5Z" fill="#212121"/>
</svg>
